svgs/duotone/sheet-plastic.svg

<svg xmlns="http://www.w3.org/2000/svg" viewBox="0 0 384 512"><!--! Font Awesome Pro 6.3.0 by @fontawesome - https://fontawesome.com License - https://fontawesome.com/license (Commercial License) Copyright 2023 Fonticons, Inc. --><defs><style>.fa-secondary{opacity:.4}</style></defs><path class="fa-primary" d="M224 384C224 366.3 238.3 352 256 352H384L224 512V384z"/><path class="fa-secondary" d="M64 512C28.65 512 0 483.3 0 448V64C0 28.65 28.65 0 64 0H320C355.3 0 384 28.65 384 64V352H256C238.3 352 224 366.3 224 384V512H64zM171.3 52.69C165.1 46.44 154.9 46.44 148.7 52.69L52.69 148.7C46.44 154.9 46.44 165.1 52.69 171.3C58.93 177.6 69.06 177.6 75.31 171.3L171.3 75.31C177.6 69.07 177.6 58.94 171.3 52.69V52.69zM267.3 107.3C273.6 101.1 273.6 90.93 267.3 84.69C261.1 78.44 250.9 78.44 244.7 84.69L84.69 244.7C78.44 250.9 78.44 261.1 84.69 267.3C90.93 273.6 101.1 273.6 107.3 267.3L267.3 107.3z"/></svg>

<svg xmlns="http://www.w3.org/2000/svg" viewBox="0 0 384 512"><!--! Font Awesome Pro 6.4.0 by @fontawesome - https://fontawesome.com License - https://fontawesome.com/license (Commercial License) Copyright 2023 Fonticons, Inc. --><defs><style>.fa-secondary{opacity:.4}</style></defs><path class="fa-primary" d="M224 512L384 352H256c-17.7 0-32 14.3-32 32V512z"/><path class="fa-secondary" d="M64 512c-35.3 0-64-28.7-64-64V64C0 28.7 28.7 0 64 0H320c35.3 0 64 28.7 64 64V352H256c-17.7 0-32 14.3-32 32V512H64zM171.3 75.3c6.2-6.2 6.2-16.4 0-22.6s-16.4-6.2-22.6 0l-96 96c-6.2 6.2-6.2 16.4 0 22.6s16.4 6.2 22.6 0l96-96zm96 32c6.2-6.2 6.2-16.4 0-22.6s-16.4-6.2-22.6 0l-160 160c-6.2 6.2-6.2 16.4 0 22.6s16.4 6.2 22.6 0l160-160z"/></svg>
